X: 1904
T: The Alewife and her Barrel
P: The Alewife and her Barrel
C:Traditional?
R:Reel (8x32)
B:RSCDS 19-4
Z:Anselm Lingnau <anselm@strathspey.org>
M:2/2
L:1/8
K:G
D|"G"G2GB "D"AGAB|"G"G2GB "A"dedB|"Em"G2GB "A7"AGAB|"D7"GEDE "G"GAGD|
  "G"G2GB "D"AGAB|"G"G2GB "A"dedB|"Em"G2GB "A7"AGAB|"G"dBGB "D7"de dB||
  "G"dege "D"agfd|"C"efge "D"af"G"g2|dege "A7"agfd|"G"edBd "D7"ef"G"g2|
  "G"dege "D"agfd|"C"efge "D"af"G"g2|dege "A7"agfd|"G"edBd "D7"ef"G"g2|]
%%center Book19/1904-Alewife_and_her_Barrel-AL.abc

%%sep 1 1 500
%%sep 1 1 500

